X:1
T:Here We Suffer Grief and Pain
T:Here We Suffer Grief and Pain
T:Samuel Ashmead, 1847
T:Thomas Bilby, 1831-32
T:Public Domain Courtesy of the Cyber Hymnal™
C:Samuel Ashmead, 1847
Z:Public Domain
Z:Courtesy of the Cyber Hymnal™
%%score 1 2 3
L:1/8
Q:1/4=95
M:3/8
K:G
V:1 treble 
V:2 treble 
V:3 bass 
V:1
 B,2 B, | (B,D)G | A2 G | F3 | F2 F | (FG)A | B2 A | G2 G | A2 F | G2 E | F3 ||"^Refrain" B3 | %12
w: 1.~Here we|suf- * fer|grief and|pain,|Here we|meet * to|part a-|gain, In|Heav’n we|part no|more.||
w: 2.~All who|love * the|Lord be-|low,|When they|die * to|Heav’n will|go, And|sing with|saints a-|bove.||
w: 3.~Lit- tle|child- * ren|will be|there,|Who have|sought * the|Lord by|prayer, From|ev- ery|Sun- day|school.|Oh!|
w: 4.~Teach- ers,|too, * shall|meet a-|bove,|And our|pas- * tors,|whom we|love, Shall|meet to|part no|more.||
w: 5.~O! how|hap- * py|we shall|be!|For our|Sav- * ior|we shall|see, Ex-|alt- ed|on His|throne!||
w: 6.~There we|all * shall|sing with|joy,|And e-|ter- * ni-|ty em-|ploy In|prais- ing|Christ the|Lord.||
 GAB | B2 B | c2 B | (AB)c | B2 G | B3 | GAB | B2 B | A2 G | (FG)A | G2 D | B,3 |] %24
w: ||||||||||||
w: ||||||||||||
w: that will be|joy- ful!|Joy- ful,|joy- * ful,|joy- ful!|Oh!|that will be|joy- ful!|When we|meet * to|part no|more.|
w: ||||||||||||
w: ||||||||||||
w: ||||||||||||
V:2
 G2 G | (GA)B | c2 B | A3 | A2 A | (AB)c | d2 c | B2 d | d2 c | e2 c | d3 || d3 | Bcd | g2 d | %14
 e2 d | (cd)e | d2 B | d3 | Bcd | g2 d | c2 B | (AB)c | B2 A | G3 |] %24
V:3
 G,2 G, | G,2 G, | F,2 G, | D,3 | D,2 D, | D,2 D, | G,2 D, | G,2 G, | F,2 A, | A,2 A,, | D,3 || %11
 G,3 | G,G,G, | G,2 G, | C,2 D, | E,2 C, | G,2 G, | G,3 | G,G,G, | G,2 G, | C,2 C, | D,2 D, | %22
 G,2 D, | G,,3 |] %24

